V6_wwwroot/ptn/core/icons/fa6/svgs/solid/plane-slash.svg

<svg xmlns="http://www.w3.org/2000/svg" viewBox="0 0 640 512"><!--! Font Awesome Free 6.1.1 by @fontawesome - https://fontawesome.com License - https://fontawesome.com/license/free (Icons: CC BY 4.0, Fonts: SIL OFL 1.1, Code: MIT License) Copyright 2022 Fonticons, Inc. --><path d="M238.1 161.3L197.8 20.4C194.9 10.17 202.6-.0001 213.2-.0001H269.4C280.9-.0001 291.5 6.153 297.2 16.12L397.7 192H514.3C548.5 192 608 221 608 256C608 292 548.5 320 514.3 320H440.6L630.8 469.1C641.2 477.3 643.1 492.4 634.9 502.8C626.7 513.2 611.6 515.1 601.2 506.9L9.196 42.89C-1.236 34.71-3.065 19.63 5.112 9.196C13.29-1.237 28.37-3.065 38.81 5.112L238.1 161.3zM41.54 128.7L362.5 381.6L297.2 495.9C291.5 505.8 280.9 512 269.4 512H213.2C202.6 512 194.9 501.8 197.8 491.6L246.9 319.1H144L100.8 377.6C97.78 381.6 93.04 384 88 384H46.03C38.28 384 32 377.7 32 369.1C32 368.7 32.18 367.4 32.54 366.1L64 255.1L32.54 145.9C32.18 144.6 32 143.3 32 142C32 135.9 35.1 130.6 41.54 128.7V128.7z"/></svg>

<svg xmlns="http://www.w3.org/2000/svg" viewBox="0 0 640 512"><!--! Font Awesome Free 6.4.2 by @fontawesome - https://fontawesome.com License - https://fontawesome.com/license/free (Icons: CC BY 4.0, Fonts: SIL OFL 1.1, Code: MIT License) Copyright 2023 Fonticons, Inc. --><path d="M514.3 192c34.2 0 93.7 29 93.7 64c0 36-59.5 64-93.7 64H440.6L630.8 469.1c10.4 8.2 12.3 23.3 4.1 33.7s-23.3 12.3-33.7 4.1L9.2 42.9C-1.2 34.7-3.1 19.6 5.1 9.2S28.4-3.1 38.8 5.1L238.1 161.3 197.8 20.4C194.9 10.2 202.6 0 213.2 0h56.2c11.5 0 22.1 6.2 27.8 16.1L397.7 192l116.6 0zM41.5 128.7l321 252.9L297.2 495.9c-5.7 10-16.3 16.1-27.8 16.1l-56.2 0c-10.6 0-18.3-10.2-15.4-20.4l49-171.6H144l-43.2 57.6c-3 4-7.8 6.4-12.8 6.4H46c-7.8 0-14-6.3-14-14c0-1.3 .2-2.6 .5-3.9L64 256 32.5 145.9c-.4-1.3-.5-2.6-.5-3.9c0-6.2 4-11.4 9.5-13.3z"/></svg>
